storage/app/icons/phosphoricons/regular/cell-signal-slash.svg

<svg xmlns="http://www.w3.org/2000/svg" viewBox="0 0 256 256" fill="currentColor"><path d="M88,152v48a8,8,0,0,1-16,0V152a8,8,0,0,1,16,0ZM40,184a8,8,0,0,0-8,8v8a8,8,0,0,0,16,0v-8A8,8,0,0,0,40,184Zm173.92,26.62-160-176A8,8,0,1,0,42.08,45.38L112,122.29V200a8,8,0,0,0,16,0V139.89l24,26.4V200a8,8,0,0,0,16,0V183.89l34.08,37.49a8,8,0,1,0,11.84-10.76Zm-53.92-87a8,8,0,0,0,8-8V72a8,8,0,0,0-16,0v43.63A8,8,0,0,0,160,123.63Zm40,44a8,8,0,0,0,8-8V32a8,8,0,0,0-16,0V159.63A8,8,0,0,0,200,167.63Z"/></svg>

<svg xmlns="http://www.w3.org/2000/svg" fill="currentColor" viewBox="0 0 256 256"><path d="M88 152v48a8 8 0 0 1-16 0v-48a8 8 0 0 1 16 0m-48 32a8 8 0 0 0-8 8v8a8 8 0 0 0 16 0v-8a8 8 0 0 0-8-8m173.92 26.62-160-176a8 8 0 1 0-11.84 10.76L112 122.29V200a8 8 0 0 0 16 0v-60.11l24 26.4V200a8 8 0 0 0 16 0v-16.11l34.08 37.49a8 8 0 1 0 11.84-10.76m-53.92-87a8 8 0 0 0 8-8V72a8 8 0 0 0-16 0v43.63a8 8 0 0 0 8 8Zm40 44a8 8 0 0 0 8-8V32a8 8 0 0 0-16 0v127.63a8 8 0 0 0 8 8Z"/></svg>
